svg/business/receive_money_line.svg

<?xml version="1.0" encoding="UTF-8"?>
<svg width="24px" height="24px" viewBox="0 0 24 24" version="1.1" xmlns="http://www.w3.org/2000/svg" xmlns:xlink="http://www.w3.org/1999/xlink">
    <title>receive_money_line</title>
    <g id="Icon" stroke="none" stroke-width="1" fill="none" fill-rule="evenodd">
        <g id="Business" transform="translate(-336.000000, -192.000000)" fill-rule="nonzero">
            <g id="receive_money_line" transform="translate(336.000000, 192.000000)">
                <path d="M24,0 L24,24 L0,24 L0,0 L24,0 Z M12.5934901,23.257841 L12.5819402,23.2595131 L12.5108777,23.2950439 L12.4918791,23.2987469 L12.4918791,23.2987469 L12.4767152,23.2950439 L12.4056548,23.2595131 C12.3958229,23.2563662 12.3870493,23.2590235 12.3821421,23.2649074 L12.3780323,23.275831 L12.360941,23.7031097 L12.3658947,23.7234994 L12.3769048,23.7357139 L12.4804777,23.8096931 L12.4953491,23.8136134 L12.4953491,23.8136134 L12.5071152,23.8096931 L12.6106902,23.7357139 L12.6232938,23.7196733 L12.6232938,23.7196733 L12.6266527,23.7031097 L12.609561,23.275831 C12.6075724,23.2657013 12.6010112,23.2592993 12.5934901,23.257841 L12.5934901,23.257841 Z M12.8583906,23.1452862 L12.8445485,23.1473072 L12.6598443,23.2396597 L12.6498822,23.2499052 L12.6498822,23.2499052 L12.6471943,23.2611114 L12.6650943,23.6906389 L12.6699349,23.7034178 L12.6699349,23.7034178 L12.678386,23.7104931 L12.8793402,23.8032389 C12.8914285,23.8068999 12.9022333,23.8029875 12.9078286,23.7952264 L12.9118235,23.7811639 L12.8776777,23.1665331 C12.8752882,23.1545897 12.8674102,23.1470016 12.8583906,23.1452862 L12.8583906,23.1452862 Z M12.1430473,23.1473072 C12.1332178,23.1423925 12.1221763,23.1452606 12.1156365,23.1525954 L12.1099173,23.1665331 L12.0757714,23.7811639 C12.0751323,23.7926639 12.0828099,23.8018602 12.0926481,23.8045676 L12.108256,23.8032389 L12.3092106,23.7104931 L12.3186497,23.7024347 L12.3186497,23.7024347 L12.3225043,23.6906389 L12.340401,23.2611114 L12.337245,23.2485176 L12.337245,23.2485176 L12.3277531,23.2396597 L12.1430473,23.1473072 Z" id="MingCute"></path>
                <path d="M17,2 C18.6569,2 20,3.34315 20,5 L20,16.9997 C20.4049,16.9998 20.7858,17.2475 20.9364,17.6489 C21.1303,18.166 20.8683,18.7424 20.3512,18.9363 L12.3512,21.9363 C12.1248,22.0212 11.8753,22.0212 11.6489,21.9363 L3.6489,18.9363 C3.13178,18.7424 2.86978,18.166 3.0637,17.6489 C3.21422,17.2475 3.5952,16.9998 4.00003,16.9997 L4.00003,5 C4.00003,3.34315 5.34317,2 7.00003,2 L17,2 Z M17,4 L7.00003,4 C6.48718929,4 6.06452214,4.38604429 6.00675766,4.88337975 L6.00003,5 L6.00003,17.682 L12,19.932 L18,17.682 L18,5 C18,4.48716857 17.613973,4.06449347 17.1166239,4.0067278 L17,4 Z M12,5 C12.51285,5 12.9355092,5.38604429 12.9932725,5.88337975 L13,6 L13,7 L15,7 C15.5523,7 16,7.44772 16,8 C16,8.51283143 15.613973,8.93550653 15.1166239,8.9932722 L15,9 L10,9 C9.72386,9 9.5,9.22386 9.5,9.5 C9.5,9.74545778 9.67687704,9.9496079 9.91012499,9.99194425 L10,10 L14,10 C15.3807,10 16.5,11.1193 16.5,12.5 C16.5,13.825472 15.4684531,14.9100378 14.1643744,14.9946823 L14,15 L13,15 L13,16 C13,16.5523 12.5523,17 12,17 C11.48715,17 11.0644908,16.613973 11.0067275,16.1166239 L11,16 L11,15 L9,15 C8.44772,15 8,14.5523 8,14 C8,13.48715 8.38604429,13.0644908 8.88337975,13.0067275 L9,13 L14,13 C14.2761,13 14.5,12.7761 14.5,12.5 C14.5,12.2545778 14.3230914,12.0504 14.0898645,12.0080571 L14,12 L10,12 C8.61929,12 7.5,10.8807 7.5,9.5 C7.5,8.1745184 8.53153766,7.08996147 9.83562452,7.00531769 L10,7 L11,7 L11,6 C11,5.44772 11.4477,5 12,5 Z" id="形状" fill="#09244B"></path>
            </g>
        </g>
    </g>
</svg>

<svg xmlns="http://www.w3.org/2000/svg" width="24" height="24"><g fill="none" fill-rule="nonzero"><path d="M24 0v24H0V0zM12.593 23.258l-.011.002-.071.035-.02.004-.014-.004-.071-.035c-.01-.004-.019-.001-.024.005l-.004.01-.017.428.005.02.01.013.104.074.015.004.012-.004.104-.074.012-.016.004-.017-.017-.427c-.002-.01-.009-.017-.017-.018m.265-.113-.013.002-.185.093-.01.01-.003.011.018.43.005.012.008.007.201.093c.012.004.023 0 .029-.008l.004-.014-.034-.614c-.003-.012-.01-.02-.02-.022m-.715.002a.023.023 0 0 0-.027.006l-.006.014-.034.614c0 .012.007.02.017.024l.015-.002.201-.093.01-.008.004-.011.017-.43-.003-.012-.01-.01z"/><path fill="#09244B" d="M17 2a3 3 0 0 1 3 3v12a1 1 0 0 1 .351 1.936l-8 3a1 1 0 0 1-.702 0l-8-3A1 1 0 0 1 4 17V5a3 3 0 0 1 3-3zm0 2H7a1 1 0 0 0-.993.883L6 5v12.682l6 2.25 6-2.25V5a1 1 0 0 0-.883-.993zm-5 1a1 1 0 0 1 .993.883L13 6v1h2a1 1 0 0 1 .117 1.993L15 9h-5a.5.5 0 0 0-.09.992L10 10h4a2.5 2.5 0 0 1 .164 4.995L14 15h-1v1a1 1 0 0 1-1.993.117L11 16v-1H9a1 1 0 0 1-.117-1.993L9 13h5a.5.5 0 0 0 .09-.992L14 12h-4a2.5 2.5 0 0 1-.164-4.995L10 7h1V6a1 1 0 0 1 1-1"/></g></svg>
